public/img/settings.svg

<?xml version="1.0" encoding="UTF-8" standalone="no"?>
<svg
   width="16"
   height="16"
   fill="currentColor"
   class="bi bi-gear-wide-connected"
   viewBox="0 0 16 16"
   version="1.1"
   id="svg4"
   sodipodi:docname="settings.svg"
   inkscape:version="1.1.1 (3bf5ae0d25, 2021-09-20)"
   xmlns:inkscape="http://www.inkscape.org/namespaces/inkscape"
   xmlns:sodipodi="http://sodipodi.sourceforge.net/DTD/sodipodi-0.dtd"
   xmlns="http://www.w3.org/2000/svg"
   xmlns:svg="http://www.w3.org/2000/svg">
  <defs
     id="defs8" />
  <sodipodi:namedview
     id="namedview6"
     pagecolor="#ffffff"
     bordercolor="#666666"
     borderopacity="1.0"
     inkscape:pageshadow="2"
     inkscape:pageopacity="0.0"
     inkscape:pagecheckerboard="0"
     showgrid="false"
     inkscape:zoom="52"
     inkscape:cx="7.9903846"
     inkscape:cy="8.0096154"
     inkscape:window-width="1920"
     inkscape:window-height="1017"
     inkscape:window-x="-8"
     inkscape:window-y="515"
     inkscape:window-maximized="1"
     inkscape:current-layer="svg4" />
  <path
     d="m 7.068,0.727 c 0.243,-0.97 1.62,-0.97 1.864,0 l 0.071,0.286 c 0.1827801,0.7312863 1.098447,0.9762923 1.622,0.434 L 10.83,1.236 c 0.695,-0.719 1.888,-0.03 1.613,0.931 l -0.08,0.284 c -0.207206,0.7243708 0.462629,1.3942065 1.187,1.187 l 0.283,-0.081 c 0.96,-0.275 1.65,0.918 0.931,1.613 l -0.211,0.205 c -0.542292,0.5235527 -0.297286,1.4392199 0.434,1.622 l 0.286,0.071 c 0.97,0.243 0.97,1.62 0,1.864 l -0.286,0.071 c -0.731286,0.1827801 -0.976292,1.098447 -0.434,1.622 l 0.211,0.205 c 0.719,0.695 0.03,1.888 -0.931,1.613 l -0.284,-0.08 c -0.724371,-0.207206 -1.394206,0.462629 -1.187,1.187 l 0.081,0.283 c 0.275,0.96 -0.918,1.65 -1.613,0.931 L 10.625,14.553 C 10.101447,14.010708 9.1857801,14.255714 9.003,14.987 l -0.071,0.286 c -0.243,0.97 -1.62,0.97 -1.864,0 L 6.997,14.987 C 6.8142199,14.255714 5.8985527,14.010708 5.375,14.553 L 5.17,14.764 c -0.695,0.719 -1.888,0.03 -1.613,-0.931 l 0.08,-0.284 C 3.8437832,12.825187 3.1749865,12.155827 2.451,12.362 L 2.167,12.443 C 1.207,12.718 0.517,11.525 1.236,10.83 L 1.447,10.625 C 1.9892923,10.101447 1.7442863,9.1857801 1.013,9.003 L 0.727,8.932 c -0.97,-0.243 -0.97,-1.62 0,-1.864 L 1.013,6.997 C 1.7442863,6.8142199 1.9892923,5.8985527 1.447,5.375 L 1.236,5.17 C 0.517,4.475 1.206,3.282 2.167,3.557 l 0.284,0.08 C 3.1748125,3.8437832 3.844173,3.1749865 3.638,2.451 L 3.557,2.167 C 3.282,1.207 4.475,0.517 5.17,1.236 L 5.375,1.447 C 5.8985527,1.9892923 6.8142199,1.7442863 6.997,1.013 Z M 12.973,8.5 H 8.25 l -2.834,3.779 c 3.1424105,1.897987 7.19033,-0.126241 7.557,-3.779 z m 0,-1 C 12.60633,3.8472408 8.5584105,1.8230133 5.416,3.721 l 2.834,3.78 h 4.723 z M 5.048,3.967 C 5.018,3.988 4.646,4.3 4.617,4.322 Z M 4.617,4.322 C 3.5865674,5.2671755 3.0005661,6.6017347 3.002,8 c 0,1.455 0.622,2.765 1.615,3.678 L 7.375,8 Z m 0.344,7.646 0.087,0.065 z"
     id="path2"
     sodipodi:nodetypes="ccccccccccccccccccccccccccccccccccccccccccccccccccccccccccccccccccccc" />
</svg>

<svg xmlns="http://www.w3.org/2000/svg" width="16" height="16" fill="currentColor" class="bi bi-gear-wide-connected" viewBox="0 0 16 16">
  <path d="M7.068.727c.243-.97 1.62-.97 1.864 0l.071.286a.96.96 0 0 0 1.622.434l.205-.211c.695-.719 1.888-.03 1.613.931l-.08.284a.96.96 0 0 0 1.187 1.187l.283-.081c.96-.275 1.65.918.931 1.613l-.211.205a.96.96 0 0 0 .434 1.622l.286.071c.97.243.97 1.62 0 1.864l-.286.071a.96.96 0 0 0-.434 1.622l.211.205c.719.695.03 1.888-.931 1.613l-.284-.08a.96.96 0 0 0-1.187 1.187l.081.283c.275.96-.918 1.65-1.613.931l-.205-.211a.96.96 0 0 0-1.622.434l-.071.286c-.243.97-1.62.97-1.864 0l-.071-.286a.96.96 0 0 0-1.622-.434l-.205.211c-.695.719-1.888.03-1.613-.931l.08-.284a.96.96 0 0 0-1.186-1.187l-.284.081c-.96.275-1.65-.918-.931-1.613l.211-.205a.96.96 0 0 0-.434-1.622l-.286-.071c-.97-.243-.97-1.62 0-1.864l.286-.071a.96.96 0 0 0 .434-1.622l-.211-.205c-.719-.695-.03-1.888.931-1.613l.284.08a.96.96 0 0 0 1.187-1.186l-.081-.284c-.275-.96.918-1.65 1.613-.931l.205.211a.96.96 0 0 0 1.622-.434l.071-.286zM12.973 8.5H8.25l-2.834 3.779A4.998 4.998 0 0 0 12.973 8.5zm0-1a4.998 4.998 0 0 0-7.557-3.779l2.834 3.78h4.723zM5.048 3.967c-.03.021-.058.043-.087.065l.087-.065zm-.431.355A4.984 4.984 0 0 0 3.002 8c0 1.455.622 2.765 1.615 3.678L7.375 8 4.617 4.322zm.344 7.646.087.065-.087-.065z"/>
</svg>
